**kern
*ICvox
*F#:
*M4/4
*clefF4
r;
=1
*>Letter>A2
*>Label>Intro
0.7
=2
0.83
=3
0.97
=4
1.1
=5
8.05
=6
8.19
=7
8.33
=8
8.47
8.54
8.56
8.58
8.59
=9
*>Letter>B
*>Label>Verse
15.25
15.26
15.28
15.3
15.32
15.35
15.37
15.38
=10
15.38
15.4
15.42
15.45
15.49
15.51
=11
15.52
15.54
15.57
15.59
15.61
15.63
15.66
=12
15.68
15.71
15.75
15.78
15.79
15.81
=13
22.51
22.52
22.55
22.58
22.62
22.63
22.64
=14
22.65
22.67
22.69
22.72
22.76
22.77
=15
22.79
22.81
22.88
22.89
22.93
=16
22.95
22.98
23.01
23.02
23.03
23.05
23.07
=17
*>Letter>C
*>Label>Chorus
29.74
29.76
29.77
29.78
29.79
29.81
29.82
29.83
=18
29.84
29.85
29.86
8A
29.87
29.89
2r
29.93
.
.
=19
2r
29.98
.
8B
29.99
30
30.01
=20
30.02
30.05
4r
30.07
.
8r
30.08
8c#
30.09
30.1
=21
30.11
30.12
30.15
30.17
30.18
30.2
8e
30.22
30.23
=22
30.24
30.24
30.26
30.28
8F#
30.3
30.3
30.31
30.32
30.32
=23
40.73
40.8
40.83
40.85
=24
40.87
40.89
40.9
40.94
40.96
40.99
=25
41.01
41.03
41.04
41.08
41.09
41.11
41.12
41.13
=26
41.15
41.18
41.22
41.23
41.25
41.27
41.28
41.29
=27
*>Letter>B
*>Label>Verse
47.93
47.95
47.97
48
4r
48.03
8F#
48.05
48.06
=28
48.07
48.09
48.12
8r
48.14
8r
48.15
8F#
48.17
=29
48.21
48.22
48.26
48.28
48.29
48.31
48.33
48.34
=30
48.36
48.38
48.4
48.43
.
4r
48.46
.
8c#
48.48
=31
48.5
55.2
55.21
55.23
55.27
8r
55.28
55.3
55.32
=32
55.33
55.35
55.37
55.4
.
8r
55.42
8F#
55.44
=33
55.47
55.49
55.52
55.56
4B
55.59
8A
55.61
=34
55.63
55.64
55.66
55.69
.
16r
55.7
55.71
55.73
55.75
=35
*>Letter>C
*>Label>Chorus
62.48
62.51
62.52
62.53
62.54
62.55
62.56
62.58
=36
62.59
62.59
62.61
8A
62.62
62.63
2r
62.68
.
.
=37
4r
62.7
62.71
62.72
62.73
62.75
62.76
=38
62.77
62.79
4r
62.81
.
8r
62.83
8c#
62.84
62.85
=39
62.86
62.87
62.89
62.92
62.93
62.95
8e
62.96
62.97
=40
62.98
62.99
63.01
63.03
8F#
63.04
63.05
63.05
63.06
63.07
=41
73.47
73.54
73.57
73.59
=42
73.6
73.62
73.64
73.67
73.69
73.73
=43
73.74
73.76
73.78
73.81
73.83
73.85
73.85
73.86
=44
73.88
73.92
73.93
73.95
73.97
73.98
74
74.02
74.03
74.04
=45
*>Letter>A
*>Label>Bridge
80.7
80.72
80.73
80.74
80.77
4r
80.8
8r
80.82
=46
80.84
80.85
80.87
80.9
4r
80.94
8F#
80.96
=47
80.97
80.99
81.01
81.02
81.04
81.06
81.08
81.09
=48
81.11
81.13
81.14
81.18
.
8r
81.19
81.21
81.23
81.24
81.25
=49
88.03
88.05
88.06
88.07
88.1
4r
88.13
8F#
88.15
=50
88.16
88.18
88.2
88.23
4r
88.27
8r
88.28
=51
88.3
88.32
88.33
88.35
88.37
88.38
88.4
88.42
=52
88.44
88.45
88.47
88.49
8r
88.5
88.52
88.54
88.55
88.56
88.57
=53
95.41
95.43
95.48
.
.
8r
95.49
95.51
95.53
95.54
95.54
=54
95.55
95.57
95.62
.
.
8r
95.64
95.66
95.67
=55
95.69
95.71
95.74
95.77
.
8B
95.79
95.83
8A
=56
95.84
95.86
95.88
95.91
.
8r
95.93
95.95
95.96
=57
95.98
102.74
102.81
.
.
8r
102.82
102.84
102.86
102.86
102.87
=58
102.88
102.92
102.93
8A
102.95
102.97
102.98
=59
103.02
103.04
103.07
103.09
103.1
103.12
103.15
=60
103.17
103.21
103.22
103.26
103.29
=61
*>Letter>B2
*>Label>Verse
110.07
110.14
.
8r
110.16
110.17
110.19
=62
110.21
110.22
110.24
110.27
.
8r
110.29
8E
110.31
110.33
=63
110.34
110.38
110.39
110.41
110.43
110.46
[8E
=64
110.48
110.53
8r
110.55
4r
110.58
.
16c#
110.59
110.61
=65
117.43
117.44
117.46
117.5
117.53
117.55
117.56
=66
117.57
117.58
117.6
117.64
117.65
117.67
117.68
117.69
=67
117.7
117.72
117.77
117.79
117.81
117.84
=68
117.86
117.87
117.89
117.93
117.96
117.98
=69
124.74
124.76
124.78
124.81
124.85
124.86
=70
124.88
124.9
124.91
124.95
124.98
=71
125.02
125.03
125.05
125.07
125.08
125.1
125.12
125.15
=72
125.17
125.19
125.2
125.24
125.25
125.26
125.27
125.29
=73
*>Letter>C
*>Label>Chorus
132.06
132.08
132.09
132.1
132.11
132.12
132.14
132.15
=74
132.16
132.16
132.18
8A
132.19
132.2
2r
132.25
.
.
=75
4r
132.27
132.28
132.29
132.31
132.32
132.33
=76
132.34
132.36
4r
132.39
.
8r
132.4
8c#
132.41
132.42
=77
132.43
132.44
132.46
132.49
132.5
132.52
8e
132.53
132.54
=78
132.56
132.56
132.58
132.6
8F#
132.61
132.62
132.62
132.64
132.64
=79
143.06
143.17
143.19
=80
143.2
143.22
143.24
143.27
143.29
143.32
=81
143.34
143.36
143.38
143.41
143.43
143.44
143.45
143.46
=82
143.48
143.51
143.53
143.55
143.57
143.58
143.6
143.62
=83
*>Letter>C
*>Label>Chorus
150.3
150.32
150.34
150.35
150.36
150.37
150.38
150.39
=84
150.4
150.41
150.43
8A
150.44
150.45
2r
150.49
.
.
=85
4r
150.52
150.53
150.54
150.55
150.56
150.57
=86
150.58
150.61
4r
150.63
.
8r
150.64
8c#
150.65
150.66
=87
150.67
150.69
150.71
150.73
150.74
150.77
8e
150.78
150.79
=88
150.8
150.8
150.82
150.84
8F#
150.86
150.86
150.87
150.88
150.88
=89
161.36
161.78
161.84
=90
161.91
161.98
162.05
162.19
162.26
162.39
=91
162.46
=92
163.01
163.19
r;
*-
!!!BillboardChartDate: 1971/05/08, 1971/06/12
!!!BillboardPeak: 3, 3
!!!BillboardWeeksOnChart: 18, 18
!!!COC: Cornelius Brothers & Sister Rose
!!!ENC: Nathaniel Condit-Schultz
!!!EST: Awating manual error checking and editing.
!!!OTL: Treat Her Like A Lady
!!!RDF**chordsym: original McGill chord annotation + (implied pitch class set, with bass pitch in first position)
!!!RDF**harmony: **recip + pitch class of root + harmonic quality
!!!RDF**leadinstrument: original McGill primary instrumentation annotation
!!!RDF**phrase: newline = linebreak in original McGill transcription
!!!RDF**timestamp: McGill audio timestamp in seconds
!!!RDT: 2017/01/12/
!!!SampleActualRank: 45,  8
!!!SampleID#: 932, 1280
!!!SampleTargetRank: 44,  8
